!!!COM: Haydn, Franz Joseph
!!!OTL: String Quartet in E-flat major
!!!OPS: Opus 1
!!!ONM: No. 2
!!!OMD: Presto
!!!OMV: 5
!!!SCT: H III:2
!!!SCA: Thematisch-bibliographisches Werkevererzeichnis (A. van Hoboken)
!!!YOR: Bremner Edition, 1772
!!!ENC: Frances Bennion
!!!CDT: 1732/3/31/-1809/5/31/
!!!CNT: Oesterreich
!!!YEC: Copyright (c) 1994, 2000 Center for Computer Assisted Research in the Humanities
!!!YEM: Rights to all derivative editions reserved.
!!!YEM: Refer to licensing agreement for further details.
!!!YEN: United States of America
**kern	**kern	**kern	**kern
*k[b-e-a-]	*k[b-e-a-]	*k[b-e-a-]	*k[b-e-a-]
*E-:	*E-:	*E-:	*E-:
*clefF4	*clefC3	*clefF	*clefF
*M2/4	*M2/4	*M2/4	*M2/4
4.r	4.r	4.r	4.r
8r	8r	8r	8b-
=1	=1	=1	=1
2r	2r	2r	8ee-
.	.	.	8b-
.	.	.	8gg
.	.	.	8ee-
=2	=2	=2	=2
4.B-	4.b-	4ff	4aa-
.	.	8dd	8ff
8d	8dd	8dd	8dd
=3	=3	=3	=3
8e-	8ee-	8ee-	8ee-
8B-	8b-	8b-	8b-
8G	8g	8g	8g
8E-	8e-	8e-	8e-
=4	=4	=4	=4
4B-	4b-	4b-	4b-
4r	4r	4r	8r
.	.	.	8B-
=5	=5	=5	=5
2r	2r	2r	8e-
.	.	.	8B-
.	.	.	8g
.	.	.	8e-
=6	=6	=6	=6
4.BB-	4.B-	4f	4a-
.	.	8d	8f
8D	8d	8d	8d
=7	=7	=7	=7
8E-	8e-	8e-	8e-
8C	8c	8c	8c
8AA-	8A-	8A-	8A-
8BB-	8B-	8B-	8B-
=8	=8	=8	=8
4E-	4e-	4e-	4e-
4r	8r	4r	8r
.	8e-	.	8gg
=9	=9	=9	=9
4.r	4d	4.r	8ff
.	.	.	8b-
.	8r	.	8a
8F	8A	8cc	8ee-
=10	=10	=10	=10
8B-	8B-	4cc	4ee-
8F	8F	.	.
4BB-	8B-	8b-	8dd
.	8e-	8r	8gg
=11	=11	=11	=11
4.r	4d	4.r	8ff
.	.	.	8b-
.	8r	.	8a
8F	8A	8cc	8ee-
=12	=12	=12	=12
8B-	8B-	4cc	4ee-
8F	8F	.	.
4BB-	4B-	8b-	8dd
.	.	8r	8ff
=13	=13	=13	=13
4B-	8f	4b- 4d	8bb-
.	8r	.	8ff
4B-	8f	4b- 4d	8bb-
.	8r	.	8ff
=14	=14	=14	=14
4B-	8f	4b- 4d	8bb-
.	8r	.	8ff
8B-	8f	8b- 8d	8bb-
8D	8d	8d	8d
=15	=15	=15	=15
8E-	8e-	8e-	8e-
8C	8c	8c	8c
8F	8f	8f	8f
8D	8d	8d	8d
=16	=16	=16	=16
4BB-	4B-	4B-	4B-
4r	[4dd-	[4ff	16f
.	.	.	16f
.	.	.	16f
.	.	.	16f
=17	=17	=17	=17
4A	8dd-]	8ff]	16f
.	.	.	16f
.	4cc	4ee-	16f
.	.	.	16f
4B-	.	.	16f
.	.	.	16f
.	[8b-	[8dd-	16f
.	.	.	16f
=18	=18	=18	=18
4F	8b-]	8dd-]	16f
.	.	.	16f
.	8a	8cc	16f
.	.	.	16f
4r	[4dd-	[4ff	16f
.	.	.	16f
.	.	.	16f
.	.	.	16f
=19	=19	=19	=19
4A	8dd-]	8ff]	16f
.	.	.	16f
.	4cc	4ee-	16f
.	.	.	16f
4B-	.	.	16f
.	.	.	16f
.	[8b-	[8dd-	16f
.	.	.	16f
=20	=20	=20	=20
4F	8b-]	8dd-]	16f
.	.	.	16f
.	8a	8cc	16f
.	.	.	16f
4r	[4dd-	[4ff	16f
.	.	.	16f
.	.	.	16f
.	.	.	16f
=21	=21	=21	=21
4A	8dd-]	8ff]	16f
.	.	.	16f
.	4cc	4ee-	16f
.	.	.	16f
4B-	.	.	16f
.	.	.	16f
.	[8b-	[8dd-	16f
.	.	.	16f
=22	=22	=22	=22
4F	8b-]	8dd-]	4f
.	8a	8cc	.
4r	4r	4r	8r
.	.	.	8ff
=23	=23	=23	=23
4B-	4f	4b- 4d	8bb-
.	.	.	8ff
4B-	4f	4b- 4d	8bb-
.	.	.	8ff
=24	=24	=24	=24
4B-	4f	4b- 4d	16bb-
.	.	.	16aa
.	.	.	16bb-
.	.	.	16ccc
8r	8r	8r	8ddd
8D	8d	8d	8d
=25	=25	=25	=25
8E-	8e-	8e-	8e-
8F	8f	8f	8f
8G	8g	8g	8g
8A	8a	8a	8a
=26	=26	=26	=26
16B-	16b-	16b-	16b-
16c	16cc	16cc	16cc
16d	16dd	16dd	16dd
16c	16cc	16cc	16cc
8B-	8b-	8b-	8b-
8D	8d	8d	8d
=27	=27	=27	=27
4E-	4e-	4e-	4e-
4F	4f	4e- 4a 4c	4e- 4a 4c
=28	=28	=28	=28
4BB-	4B-	4B- 4d 4b-	4B- 4b- 4d
8r	8r	8r	8r
8r	8r	8r	8f
=29	=29	=29	=29
2r	2r	2r	8b-
.	.	.	8f
.	.	.	8dd
.	.	.	8b-
=30	=30	=30	=30
4.F	4.f	4cc	4ee-
.	.	8a	8cc
8A	8a	8a	8a
=31	=31	=31	=31
8B-	8b-	8b-	8b-
8G	8g	8g	8g
8E-	8e-	8e-	8e-
8F	8f	8f	8f
=32	=32	=32	=32
4BB-	4B-	4B-	4B-
4r	4r	4r	8r
.	.	.	8b-
=33	=33	=33	=33
2r	2r	2r	8ee-
.	.	.	8b-
.	.	.	8gg
.	.	.	8ee-
=34	=34	=34	=34
4.B-	4.b-	4ff	4aa-
.	.	8dd	8ff
8d	8dd	8dd	8dd
=35	=35	=35	=35
8e-	8ee-	8ee-	8ee-
8B-	8b-	8b-	8b-
8G	8g	8g	8g
8E-	8e-	8e-	8e-
=36	=36	=36	=36
4B-	4b-	4b-	4b-
4r	4r	4r	8r
.	.	.	8gg
=37	=37	=37	=37
8G	16e-	16d-	8bb-
.	16e-	16d-	.
8G	16e-	16d-	8e-
.	16e-	16d-	.
8G	16e-	16d-	8b-
.	16e-	16d-	.
8G	16e-	16d-	8dd-
.	16e-	16d-	.
=38	=38	=38	=38
8A-	16e-	16c	8cc
.	16e-	16c	.
8A-	16e-	16c	8e-
.	16e-	16c	.
8A-	16e-	16c	8A-
.	16e-	16c	.
8A-	16e-	16c	8cc
.	16e-	16c	.
=39	=39	=39	=39
8E	16c	16g	8gg
.	16c	16g	.
8E	16c	16g	8c
.	16c	16g	.
8E	16c	16g	8g
.	16c	16g	.
8E	16c	16g	8b-
.	16c	16g	.
=40	=40	=40	=40
8F	16c	16a-	8a-
.	16c	16a-	.
8F	16c	16a-	8f
.	16c	16a-	.
8F	16c	16a-	8A-
.	16c	16a-	.
8F	16c	16a-	8ff
.	16c	16a-	.
=41	=41	=41	=41
8F	16d	16a-	16ff
.	16d	16a-	16gg
8F	16d	16a-	16ff
.	16d	16a-	16gg
8F	16c	16a-	8aa-
.	16c	16a-	.
8F	16c	16a-	8cc
.	16c	16a-	.
=42	=42	=42	=42
4G	4G	4g	16b
.	.	.	16g
.	.	.	16g
.	.	.	16g
4r	[4ee-	[4gg	16g
.	.	.	16g
.	.	.	16g
.	.	.	16g
=43	=43	=43	=43
4B	8ee-]	8gg]	16g
.	.	.	16g
.	4dd	4ff	16g
.	.	.	16g
4c	.	.	16g
.	.	.	16g
.	[8cc	[8ee-	16g
.	.	.	16g
=44	=44	=44	=44
4G	8cc]	8ee-]	16g
.	.	.	16g
.	8b	8dd	16g
.	.	.	16g
4r	[4e-	[4g	16g
.	.	.	16g
.	.	.	16g
.	.	.	16g
=45	=45	=45	=45
4BB	8e-]	8g]	16g
.	.	.	16g
.	4d	4f	16g
.	.	.	16g
4C	.	.	16g
.	.	.	16g
.	8c	8e-	16g
.	.	.	16g
=46	=46	=46	=46
8GG	8B	8d	8g
4.r	4.r	4.r	4r
.	.	.	8g
=47	=47	=47	=47
2r	8e-	8g	[4cc
.	8e-	8g	.
.	8e-	8g	8.cc]
.	8e-	8g	.
.	.	.	32dd
.	.	.	32ee-
=48	=48	=48	=48
2r	8f	8a-	4dd
.	8f	8a-	.
.	8f	8a-	8r
.	8f	8ff	8aa-
=49	=49	=49	=49
2r	8g	8ee-	8gg
.	8g	8dd	8ff
.	8g	8cc	8ee-
.	8g	8b	8dd
=50	=50	=50	=50
4.r	4e-	4cc	4cc
.	8r	8r	8r
8G	8g	8g	8g
=51	=51	=51	=51
8c	8cc	8cc	8cc
8G	8g	8g	8g
8e-	8ee-	8ee-	8ee-
8B	8b	8b	8b
=52	=52	=52	=52
4c	4cc	4cc	4cc
8r	8r	8r	8r
8G	8g	8g	8g
=53	=53	=53	=53
8c	8cc	8cc	8cc
8G	8g	8g	8g
8E-	8e-	8e-	8e-
8C	8c	8c	8c
=54	=54	=54	=54
4G	4g	4g	4g
4r	4r	4r	8r
.	.	.	8b-
=55	=55	=55	=55
2r	2r	2r	8ee-
.	.	.	8b-
.	.	.	8gg
.	.	.	8ee-
=56	=56	=56	=56
4.B-	4.b-	4ff	4aa-
.	.	8dd	8ff
8B-	8b-	8a-	8dd
=57	=57	=57	=57
4E-	4e-	8g	8ee-
.	.	8g	8b-
8r	8r	8f	8a-
8E-	8e-	8e-	8g
=58	=58	=58	=58
8B-	8b-	8d	8f
8BB-	8B-	8B-	8B-
4r	4r	4r	8r
.	.	.	8cc
=59	=59	=59	=59
4.r	4.r	4.r	8b-
.	.	.	8e-
.	.	.	8d
8BB-	8d	8f	8a-
=60	=60	=60	=60
8E-	8e-	4f	4a-
8BB-	8B-	.	.
4E-	4E-	8e-	8g
.	.	8r	8cc
=61	=61	=61	=61
4.r	4.r	4.r	8b-
.	.	.	8ee-
.	.	.	8dd
8BB-	8d	8ff	8aa-
=62	=62	=62	=62
8E-	8e-	4ff	4aa-
8BB-	8B-	.	.
4E-	4E-	8ee-	8gg
.	.	8r	16bb-
.	.	.	16gg
=63	=63	=63	=63
4E-	4B-	4e- 4G	8ee-
.	.	.	8b-
4E-	4B-	4G 4e-	8ee-
.	.	.	8b-
=64	=64	=64	=64
4E-	4B-	4e- 4G	8ee-
.	.	.	8b-
8E-	8B-	8G 8e-	8ee-
8G	8g	8g	8g
=65	=65	=65	=65
8A-	8a-	8a-	8a-
8F	8f	8f	8f
8B-	8b-	8b-	8b-
8G	8g	8g	8g
=66	=66	=66	=66
4E-	4e-	4e-	4e-
4r	[4g-	[4b-	16B-
.	.	.	16B-
.	.	.	16B-
.	.	.	16B-
=67	=67	=67	=67
4d	8g-]	8b-]	16B-
.	.	.	16B-
.	4f	4a-	16B-
.	.	.	16B-
4e-	.	.	16B-
.	.	.	16B-
.	[8e-	[8g-	16B-
.	.	.	16B-
=68	=68	=68	=68
4B-	8e-]	8g-]	16B-
.	.	.	16B-
.	8d	4f	16B-
.	.	.	16B-
4r	[4g-	.	16B-
.	.	.	16B-
.	.	[8b-	16B-
.	.	.	16B-
=69	=69	=69	=69
4D	8g-]	8b-]	16B-
.	.	.	16B-
.	4f	4a-	16B-
.	.	.	16B-
4E-	.	.	16B-
.	.	.	16B-
.	[8e-	[8g-	16B-
.	.	.	16B-
=70	=70	=70	=70
4BB-	8e-]	8g-]	16B-
.	.	.	16B-
.	8d	8f	16B-
.	.	.	16B-
4r	[4g-	[4b-	16B-
.	.	.	16B-
.	.	.	16B-
.	.	.	16B-
=71	=71	=71	=71
4D	8g-]	8b-]	16B-
.	.	.	16B-
.	4f	4a-	16B-
.	.	.	16B-
4E-	.	.	16B-
.	.	.	16B-
.	[8e-	[8g-	16B-
.	.	.	16B-
=72	=72	=72	=72
4BB-	8e-]	8g-]	4B-
.	8d	8f	.
4r	4r	4r	8r
.	.	.	8b-
=73	=73	=73	=73
4E-	4e-	4G 4e-	8ee-
.	.	.	8b-
4E-	4e-	4e- 4G	8ee-
.	.	.	8b-
=74	=74	=74	=74
4E-	4e-	4e- 4G	16ee-
.	.	.	16dd
.	.	.	16ee-
.	.	.	16ff
8r	8r	8r	8gg
8GG	8G	8G	8G
=75	=75	=75	=75
8AA-	8A-	8A-	8A-
8BB-	8B-	8B-	8B-
8C	8c	8c	8c
8D	8d	8d	8d
=76	=76	=76	=76
16E-	16e-	16e-	16e-
16F	16f	16f	16f
16G	16g	16g	16g
16F	16f	16f	16f
8E-	8e-	8e-	8e-
8GG	8G	8G	8G
=77	=77	=77	=77
4AA-	4A-	4A-	4A-
4BB-	4B-	4d 4A-	4d 4A-
=78	=78	=78	=78
4E-	4e-	4e- 4G	4e- 4G
4r	4r	4r	4r
==	==	==	==
*-	*-	*-	*-
!!!RWG1: This file contains only pitch and duration data.
!!!RWG2: Transposing instruments are not transposed.
!!!RWG3: Spines may have incompatible meters.
!!!RWG4: Durations of rests and tied notes may be interpreted.
!!!RWG: Key is interpreted using the Humdrum key tool.
!!!GTL: 10 Divertimentos
!!!AFT: stage1
!!!END: 1997/04/15
!!!KEY: 853506176
!!!EMD: Converted from MuseData to Humdrum Dec 16, 2000, by Andreas Kornstaedt using muse2kern.
!!!EMD: Manual editing by Craig Sapp, Nov 2001
